svg/filled/link.svg

<svg width="24" height="24" viewBox="0 0 24 24" fill="none" xmlns="http://www.w3.org/2000/svg">
<path d="M7.05017 11.2929L4.92885 13.4142C3.36675 14.9763 3.36675 17.509 4.92885 19.0711C6.49095 20.6332 9.02361 20.6332 10.5857 19.0711L13.4141 16.2427C14.9762 14.6806 14.9762 12.1479 13.4141 10.5858V10.5858L12.3535 11.6464V11.6464C13.3298 12.6228 13.3298 14.2057 12.3535 15.182L9.52505 18.0104C8.54873 18.9867 6.96582 18.9867 5.98951 18.0104C5.0132 17.0341 5.0132 15.4512 5.98951 14.4749L8.11083 12.3536L7.05017 11.2929Z" fill="black"/>
<path d="M15.889 11.6464L18.0103 9.52512C18.9866 8.54881 18.9866 6.9659 18.0103 5.98959C17.034 5.01328 15.4511 5.01328 14.4748 5.98959L11.6464 8.81801C10.67 9.79433 10.67 11.3772 11.6464 12.3535L10.5857 13.4142C9.0236 11.8521 9.0236 9.31945 10.5857 7.75735L13.4141 4.92893C14.9762 3.36683 17.5089 3.36683 19.071 4.92893C20.6331 6.49102 20.6331 9.02368 19.071 10.5858L16.9497 12.7071L15.889 11.6464Z" fill="black"/>
</svg>

<svg xmlns="http://www.w3.org/2000/svg" viewBox="0 0 24 24" fill="currentColor">
  <path d="M7.05 11.293L4.93 13.414a4 4 0 005.657 5.657l2.828-2.828a4 4 0 000-5.657l-1.06 1.06a2.5 2.5 0 010 3.536L9.524 18.01a2.5 2.5 0 01-3.535-3.535l2.12-2.121-1.06-1.061z"/>
  <path d="M15.889 11.646l2.121-2.12a2.5 2.5 0 00-3.535-3.536l-2.829 2.828a2.5 2.5 0 000 3.536l-1.06 1.06a4 4 0 010-5.657l2.828-2.828a4 4 0 015.657 5.657l-2.121 2.121-1.061-1.06z"/>
</svg>
